public/illustrations/_clock.svg

<svg width="242" height="225" viewBox="0 0 242 225" fill="none" xmlns="http://www.w3.org/2000/svg">
<path d="M155.657 34.2248C160.598 36.3911 165.511 38.4299 170.184 40.7661C178.906 45.0844 186.778 50.6488 193.631 57.4591C197.581 61.0129 201.12 64.7649 204.547 68.8143C216.44 83.9073 223.137 102.413 223.789 121.555C224.822 141.66 218.72 161.553 206.642 177.665C204.42 180.752 201.871 183.598 199.351 186.571C200.795 189.403 202.352 191.937 203.499 194.67C205.411 199.158 207.18 203.674 208.681 208.347C209.29 209.989 209.488 211.816 208.95 213.444C208.568 215.2 207.591 216.729 206.133 217.734C203.796 219.844 201.163 221.826 198.487 223.397C194.593 225.535 190.643 224.672 187.472 221.599C184.116 218.258 181.015 214.605 177.929 211.094C176.484 209.536 175.281 207.681 173.766 205.558C141.456 220.169 109.698 218.895 78.3646 201.777C76.977 203.49 75.7311 205.048 74.3294 206.634C70.8888 210.428 67.6323 214.478 64.036 218.145C56.0505 225.988 47.612 222.916 41.0706 216.502C39.7964 215.214 39.0459 213.586 38.7202 211.915C38.5362 210.23 38.6211 208.361 39.4424 206.704C41.467 201.791 43.7891 196.836 46.4085 192.135C48.419 188.355 50.8968 184.957 53.3321 181.134C52.1569 179.548 51.1375 177.948 49.9623 176.377C37.0071 159.259 30.3526 139.904 30.8906 118.624C31.726 89.4857 44.2847 66.0532 67.4341 48.2984C75.8585 41.9695 85.4439 37.0989 95.5249 34.154C96.516 34.0407 97.309 33.5311 97.9462 32.894C98.5833 32.2569 99.0647 31.3506 99.3904 30.4586C100.084 27.6835 101.231 25.135 102.08 22.4732C104.473 15.6629 109.174 11.7411 116.494 10.9482C123.814 10.1554 121.039 10.8773 122.342 9.74462C123.375 8.78184 123.106 6.24756 123.333 4.36447C123.488 3.20347 124.083 2.14157 124.862 1.34869C125.768 0.541651 126.872 0.130963 127.991 0.0176943C129.109 -0.0955742 130.299 0.343355 131.233 1.09376C132.168 1.84416 132.833 2.76457 133.116 4.02468L133.782 10.212C135.396 10.6084 136.996 11.0049 138.582 11.1181C151.324 11.7269 156.648 24.1156 155.445 34.0691L155.6 34.1965L155.657 34.2248ZM115.899 40.5253C94.6754 43.1022 76.9064 51.3001 62.7477 66.5064C43.9874 86.6257 37.0355 110.582 43.0812 137.427C50.2031 168.986 70.1385 190.04 100.622 200.701C125.188 209.295 149.342 207.398 172.166 194.67C193.928 182.635 207.605 164.2 212.334 139.48C215.831 121.725 212.986 103.375 204.292 87.5177C199.223 77.5217 192.271 68.6017 183.663 61.4092C174.417 53.5795 163.529 47.7746 152.032 44.1783C140.394 40.5962 128.302 39.336 116.168 40.5111L115.885 40.5395L115.899 40.5253ZM146.015 32.002C145.321 29.5101 144.712 27.8676 144.259 26.3526C143.976 25.1066 143.282 23.8891 142.348 23.1387C141.399 22.2467 140.196 21.6662 138.893 21.5246C131.927 20.2787 124.791 20.2078 117.783 21.2414C113.025 22.0342 111.043 24.8236 110.958 30.5295C122.639 29.2694 134.504 29.6942 146.015 32.002ZM60.7371 188.766C56.716 195.038 52.6383 200.744 49.9198 207.313C49.3535 208.658 48.9287 209.989 50.6136 211.079C52.7657 212.552 54.2383 212.962 55.8099 211.66C61.0203 207.115 65.5793 201.919 69.3597 196.1L60.7371 188.78V188.766ZM191.209 194.302L182.898 200.475C186.155 205.529 190.077 210.23 194.65 214.294C196.165 212.566 198.855 212.41 198.445 209.89C197.128 204.34 194.707 199.045 191.209 194.302Z" fill="#102185"/>
<path d="M52.6242 35.3435C51.9021 36.5328 50.8827 37.6796 49.6368 38.515C40.1221 43.5554 34.317 51.9231 28.8659 60.7864C26.6855 64.3543 25.0715 67.9931 23.2875 71.7593C21.5035 75.5254 18.7282 77.1537 15.7266 76.0494C12.8949 74.8176 11.8897 71.5468 13.5321 67.7665C19.3089 55.2503 26.3031 43.3148 37.3186 34.4657C40.0371 32.2569 43.0954 30.657 46.2528 29.496C49.8491 28.25 52.9216 30.9401 52.4685 35.4567L52.6242 35.3293V35.3435Z" fill="#102185"/>
<path d="M4.30074 60.8574C1.07255 60.4327 -0.824765 57.4735 0.350406 53.9197C1.34151 50.7623 2.6017 47.6474 4.13084 44.7025C8.42092 35.9808 14.7074 28.2361 22.3531 22.247C24.8733 20.4347 27.5068 18.9197 30.1262 17.4047C30.9049 16.9375 31.7968 16.6259 32.6746 16.456C33.7082 16.1587 34.8552 16.173 35.9454 16.5977C37.0356 17.0225 37.8001 17.702 38.3948 18.6365C38.8337 19.6984 38.9613 20.8594 38.6781 21.9637C38.3949 23.0681 37.6868 24.1159 36.7523 24.7106C36.1152 25.192 35.4781 25.6874 34.8693 26.0272C23.5848 32.5402 16.1941 42.1398 11.2244 53.9197C10.6014 55.4063 10.1341 56.7797 9.38366 58.1106C8.97306 59.0592 8.166 59.8096 7.24568 60.2627C6.32537 60.7158 5.30589 60.8714 4.18736 60.7157L4.31491 60.8714L4.30074 60.8574Z" fill="#102185"/>
<path d="M232.256 62.9665C232.568 65.7841 231.506 67.8937 229.736 68.6441C228.801 69.168 227.81 69.2812 226.649 69.1255C225.63 68.9556 224.582 68.4883 223.945 67.8512C223.138 66.945 222.303 65.8973 221.623 64.8212C217.078 58.3366 212.519 51.7104 205.879 47.0098C203.557 45.2683 200.98 43.8382 198.516 42.1108C197.298 41.3887 196.222 40.6525 195.118 39.6331C194.325 38.8685 193.773 37.7784 193.645 36.5183C193.518 35.3856 193.829 34.2245 194.438 33.3042C195.047 32.3839 195.982 31.7186 197.086 31.4496C198.19 31.1805 199.337 31.2087 200.243 31.676C203.387 33.0493 206.416 34.706 209.319 36.5324C218.239 42.6914 224.837 50.9458 230.656 59.9931C231.18 60.9276 231.718 61.8763 232.115 62.9665H232.256Z" fill="#102185"/>
<path d="M210.223 17.362C211.243 17.5319 212.277 17.8576 213.31 18.3106C224.354 24.2431 233.684 32.9081 240.396 43.5836C241.075 44.6455 241.5 45.8915 241.642 47.1516C241.727 48.0011 241.543 48.8648 241.075 49.7709C240.735 50.5213 240.098 51.3 239.291 51.6681C238.498 52.1778 237.663 52.4187 236.799 52.362C235.95 52.447 235.058 52.1213 234.293 51.6399C233.047 50.6347 231.915 49.332 230.909 48.0153C225.472 39.9166 218.181 33.0214 209.671 28.0943C208.312 27.3863 207.066 26.381 206.231 25.1917C203.895 22.0202 206.004 17.8151 210.521 17.4612L210.223 17.3478V17.362Z" fill="#102185"/>
<path d="M202.707 115.014C204.533 143.727 193.758 166.537 170.17 182.763C152.401 194.939 132.267 198.394 111.242 193.551C101.614 191.456 92.3538 187.477 84.4815 181.786C76.4394 175.966 69.6857 168.717 64.6169 160.151C56.1783 146.686 52.7377 130.673 55.1729 115.028C59.9586 82.888 78.4924 62.0892 109.415 53.0418C132.055 46.4581 153.548 50.2525 172.846 64.1138C181.299 69.8904 188.378 77.3803 193.603 86.2153C198.827 95.0502 202.027 104.82 202.976 114.971L202.692 115L202.707 115.014ZM192.13 116.019C190.898 111.163 190.063 106.136 188.42 101.464C184.697 90.7602 178.694 81.3022 169.802 74.138C157.781 64.3261 142.532 59.0026 127.028 59.2575C99.702 59.3707 72.2058 79.0086 65.5937 107.496C61.7001 124.146 64.093 139.706 72.7723 154.148C87.6672 178.6 116.069 189.771 144.203 182.593C158.758 178.883 171.473 170.105 180.265 157.9C189.058 145.695 193.277 130.716 192.088 115.75L192.116 116.033L192.13 116.019Z" fill="#102185"/>
<path d="M131.135 99.8354C127.228 105.81 124.622 112.069 121.621 118.525L153.69 139.833C153.534 138.432 153.435 137.441 153.591 136.28C153.69 133.278 155.064 131.423 157.584 131.013C158.688 130.744 159.977 130.758 161.038 131.352C162.1 131.947 162.907 132.853 163.176 133.972C164.55 138.814 165.654 143.67 166.32 148.583C166.447 149.716 166.277 150.863 165.668 151.783C165.06 152.704 164.153 153.511 163.191 153.907C158.433 155.988 153.534 158.084 148.579 159.755C145.28 160.831 142.873 159.655 141.74 157.079C140.622 154.629 141.868 151.656 144.671 149.928C145.351 149.574 146.016 149.206 146.951 148.682C146.299 147.904 145.662 147.252 145.039 146.757C136.898 141.235 128.615 135.855 120.46 130.191C117.699 128.351 115.051 126.227 112.658 123.919C109.643 121.116 109.473 119.417 111.2 115.679C113.749 110.27 116.439 104.862 119.129 99.4391C119.582 98.3914 120.063 97.4852 120.616 95.9985L117.515 96.3383C116.524 96.4516 115.504 96.126 114.584 95.5172C113.678 95.0499 113.012 94.1154 112.616 93.1668C112.234 92.2182 112.106 91.0854 112.276 90.066C112.588 89.0324 113.21 88.1121 114.003 87.6024C119.483 84.3035 125.84 82.477 132.254 82.4912C134.675 82.5195 136.459 84.4593 137.408 86.6397C138.724 89.6272 139.928 92.7703 140.976 95.9418C141.585 97.5842 141.924 99.3965 142.519 101.039C143.595 104.338 142.845 106.702 140.126 107.849C138.908 108.416 137.493 108.557 136.176 108.132C134.845 107.708 133.755 106.83 133.061 105.626C132.126 103.588 131.334 101.534 130.682 99.4815L131.15 99.8638L131.135 99.8354Z" fill="#102185"/>
<path d="M77.0348 134.17C75.6331 134.325 74.1605 133.915 73.0845 133.179C71.8527 132.315 71.1448 131.111 70.8616 129.724C70.7908 129.016 70.7058 128.322 70.9182 127.586C71.1305 126.85 71.343 126.255 71.7111 125.646C72.0793 125.037 72.5889 124.556 73.2686 124.202C73.8066 123.862 74.4862 123.636 75.1799 123.423C76.5816 123.268 78.0542 123.678 79.1303 124.414C80.2205 125.292 81.0699 126.482 81.3531 127.883C81.4239 128.591 81.509 129.285 81.2966 130.021C81.0842 130.758 80.8717 131.352 80.5036 131.961C80.1355 132.57 79.6258 133.051 78.9462 133.405C78.4082 133.745 77.7286 133.972 77.0348 134.184V134.17Z" fill="#102185"/>
<path d="M134.972 68.0919C135.043 68.7999 135.128 69.4936 134.915 70.2299C134.703 70.9661 134.491 71.5608 133.981 72.1838C133.613 72.7926 133.103 73.2738 132.424 73.6278C131.886 73.9676 131.206 74.1942 130.498 74.265C129.79 74.3358 129.238 74.4065 128.502 74.1942C127.907 73.9676 127.312 73.7554 126.689 73.2457C126.222 72.8634 125.741 72.3535 125.387 71.6739C125.033 70.9943 124.82 70.4563 124.749 69.7484C124.594 68.3467 125.019 67.0159 125.882 65.7841C126.76 64.6939 127.964 63.9858 129.365 63.7026C130.625 63.561 131.956 63.986 132.891 64.7505C133.967 65.4868 134.533 66.7043 134.802 67.9644L134.958 68.0919H134.972Z" fill="#102185"/>
<path d="M184.626 120.252C184.682 120.818 184.767 121.512 184.541 122.106C184.314 122.701 184.102 123.296 183.72 123.763C183.337 124.23 182.828 124.712 182.29 125.051C181.751 125.391 181.213 125.589 180.506 125.674C179.939 125.731 179.245 125.816 178.651 125.59C178.07 125.505 177.461 125.15 176.994 124.768C176.527 124.386 176.046 123.876 175.706 123.338C175.366 122.8 175.168 122.262 175.083 121.554C174.941 120.294 175.083 118.992 175.833 117.916C176.584 116.839 177.631 116.16 179.033 115.863C179.599 115.806 180.293 115.721 180.888 115.947C181.468 116.032 182.077 116.386 182.686 116.755C183.153 117.137 183.635 117.647 183.975 118.185C184.314 118.723 184.541 119.402 184.597 119.969L184.626 120.252Z" fill="#102185"/>
<path d="M127.423 170.728C127.537 171.719 127.197 172.597 126.715 173.362C126.234 174.126 125.441 174.777 124.634 175.16C123.827 175.542 122.836 175.641 121.958 175.443C121.08 175.259 120.174 174.777 119.537 174.14C118.9 173.503 118.39 172.696 118.135 171.733C118.022 170.742 117.937 169.907 118.263 169.015C118.588 168.123 119.225 167.344 119.877 166.849C120.67 166.339 121.505 166.098 122.496 165.999C123.784 165.999 124.96 166.438 125.781 167.358C126.729 168.25 127.14 169.355 127.268 170.615L127.423 170.742V170.728Z" fill="#102185"/>
</svg>

<svg xmlns="http://www.w3.org/2000/svg" width="242" height="225" fill="none" viewBox="0 0 242 225"><path fill="#102185" d="M155.657 34.225c4.941 2.166 9.854 4.205 14.527 6.541 8.722 4.318 16.594 9.883 23.447 16.693 3.95 3.554 7.489 7.306 10.916 11.355 11.893 15.093 18.59 33.599 19.242 52.741 1.033 20.105-5.069 39.998-17.147 56.11-2.222 3.087-4.771 5.933-7.291 8.906 1.444 2.832 3.001 5.366 4.148 8.099 1.912 4.488 3.681 9.004 5.182 13.677.609 1.642.807 3.469.269 5.097-.382 1.756-1.359 3.285-2.817 4.29-2.337 2.11-4.97 4.092-7.646 5.663-3.894 2.138-7.844 1.275-11.015-1.798-3.356-3.341-6.457-6.994-9.543-10.505-1.445-1.558-2.648-3.413-4.163-5.536-32.31 14.611-64.068 13.337-95.401-3.781-1.388 1.713-2.634 3.271-4.036 4.857-3.44 3.794-6.697 7.844-10.293 11.511-7.986 7.843-16.424 4.771-22.965-1.643-1.275-1.288-2.025-2.916-2.35-4.587-.185-1.685-.1-3.554.721-5.211 2.025-4.913 4.347-9.868 6.966-14.569 2.011-3.78 4.489-7.178 6.924-11.001-1.175-1.586-2.194-3.186-3.37-4.757-12.955-17.118-19.61-36.473-19.071-57.753.835-29.138 13.394-52.57 36.543-70.326 8.425-6.329 18.01-11.2 28.09-14.144.992-.113 1.785-.623 2.422-1.26s1.119-1.543 1.444-2.435c.694-2.776 1.841-5.324 2.69-7.986 2.393-6.81 7.094-10.732 14.414-11.525s4.545-.07 5.848-1.203c1.033-.963.764-3.497.991-5.38.155-1.162.75-2.223 1.529-3.016.906-.807 2.01-1.218 3.129-1.331 1.118-.114 2.308.325 3.242 1.076.935.75 1.6 1.67 1.883 2.93l.666 6.188c1.614.396 3.214.793 4.8.906 12.742.609 18.066 12.998 16.863 22.951l.155.127zm-39.758 6.3C94.675 43.102 76.906 51.3 62.748 66.506c-18.76 20.12-25.712 44.076-19.667 70.921 7.122 31.559 27.057 52.613 57.541 63.274 24.566 8.594 48.72 6.697 71.544-6.031 21.762-12.035 35.439-30.47 40.168-55.19a77 77 0 0 0-8.042-51.962c-5.069-9.996-12.021-18.916-20.629-26.109-9.246-7.83-20.134-13.634-31.631-17.23-11.638-3.583-23.73-4.843-35.864-3.668l-.283.028zm30.116-8.523c-.694-2.492-1.303-4.134-1.756-5.65-.283-1.245-.977-2.463-1.911-3.213a6 6 0 0 0-3.455-1.614c-6.966-1.246-14.102-1.317-21.11-.284-4.758.793-6.74 3.583-6.825 9.289 11.681-1.26 23.546-.836 35.057 1.472M60.737 188.766c-4.021 6.272-8.099 11.978-10.817 18.547-.567 1.345-.991 2.676.694 3.766 2.152 1.473 3.624 1.883 5.196.581 5.21-4.545 9.77-9.741 13.55-15.56l-8.623-7.32zm130.472 5.536-8.311 6.173c3.257 5.054 7.179 9.755 11.752 13.819 1.515-1.728 4.205-1.884 3.795-4.404a42.9 42.9 0 0 0-7.236-15.588M52.624 35.344c-.722 1.189-1.741 2.336-2.987 3.171-9.515 5.04-15.32 13.408-20.771 22.271-2.18 3.568-3.794 7.207-5.578 10.973s-4.56 5.395-7.561 4.29c-2.832-1.231-3.837-4.502-2.195-8.283 5.777-12.516 12.771-24.451 23.787-33.3 2.718-2.21 5.776-3.809 8.934-4.97 3.596-1.246 6.669 1.444 6.215 5.96l.156-.127zM4.3 60.857C1.074 60.433-.824 57.474.35 53.92a57.3 57.3 0 0 1 3.78-9.218 65.2 65.2 0 0 1 18.223-22.455c2.52-1.812 5.154-3.327 7.773-4.842.779-.468 1.67-.78 2.549-.949a5.1 5.1 0 0 1 3.27.142c1.09.425 1.855 1.104 2.45 2.039.439 1.061.566 2.222.283 3.327s-.991 2.152-1.926 2.747c-.637.481-1.274.976-1.883 1.316C23.585 32.54 16.194 42.14 11.224 53.92c-.623 1.486-1.09 2.86-1.84 4.19-.41.95-1.218 1.7-2.138 2.153s-1.94.608-3.059.453l.128.155zM232.256 62.967c.312 2.817-.75 4.927-2.52 5.677-.935.524-1.926.637-3.087.481-1.019-.17-2.067-.637-2.704-1.274-.807-.906-1.642-1.954-2.322-3.03-4.545-6.484-9.104-13.11-15.744-17.811-2.322-1.742-4.899-3.172-7.363-4.9-1.218-.721-2.294-1.457-3.398-2.477-.793-.765-1.345-1.855-1.473-3.115-.127-1.132.184-2.294.793-3.214a4.42 4.42 0 0 1 2.648-1.854c1.104-.27 2.251-.241 3.157.226 3.144 1.373 6.173 3.03 9.076 4.856 8.92 6.16 15.518 14.414 21.337 23.461.524.935 1.062 1.883 1.459 2.974zM210.223 17.362c1.02.17 2.054.496 3.087.949a72.4 72.4 0 0 1 27.086 25.273 8.4 8.4 0 0 1 1.246 3.568c.085.85-.099 1.713-.567 2.619-.34.75-.977 1.529-1.784 1.897-.793.51-1.628.75-2.492.694-.849.085-1.741-.24-2.506-.722-1.246-1.005-2.378-2.308-3.384-3.625-5.437-8.098-12.728-14.994-21.238-19.92-1.359-.709-2.605-1.714-3.44-2.903-2.336-3.172-.227-7.377 4.29-7.73l-.298-.114z"/><path fill="#102185" d="M202.707 115.014c1.826 28.713-8.949 51.523-32.537 67.749-17.769 12.176-37.903 15.631-58.928 10.788-9.628-2.095-18.888-6.074-26.76-11.765-8.043-5.82-14.796-13.069-19.865-21.635-8.439-13.465-11.88-29.478-9.444-45.123 4.786-32.14 23.32-52.939 54.242-61.986 22.64-6.584 44.133-2.79 63.431 11.072 8.453 5.776 15.532 13.266 20.757 22.101 5.224 8.835 8.424 18.605 9.373 28.756l-.284.029zm-10.577 1.005c-1.232-4.856-2.067-9.883-3.71-14.555-3.723-10.704-9.726-20.162-18.618-27.326-12.021-9.812-27.27-15.135-42.774-14.88-27.326.113-54.822 19.75-61.434 48.238-3.894 16.65-1.501 32.21 7.178 46.652 14.895 24.452 43.297 35.623 71.431 28.445 14.555-3.71 27.27-12.488 36.062-24.693 8.793-12.205 13.012-27.184 11.823-42.15l.028.283z"/><path fill="#102185" d="M131.135 99.835c-3.907 5.975-6.513 12.234-9.514 18.69l32.069 21.308c-.156-1.401-.255-2.392-.099-3.553.099-3.002 1.473-4.857 3.993-5.267 1.104-.269 2.393-.255 3.454.339s1.869 1.501 2.138 2.62c1.374 4.842 2.478 9.698 3.144 14.611.127 1.133-.043 2.28-.652 3.2-.608.921-1.515 1.728-2.477 2.124-4.758 2.081-9.657 4.177-14.612 5.848-3.299 1.076-5.706-.1-6.839-2.676-1.118-2.45.128-5.423 2.931-7.151.68-.354 1.345-.722 2.28-1.246-.652-.778-1.289-1.43-1.912-1.925-8.141-5.522-16.424-10.902-24.579-16.566a56 56 0 0 1-7.802-6.272c-3.015-2.803-3.185-4.502-1.458-8.24 2.549-5.409 5.239-10.817 7.929-16.24.453-1.048.934-1.954 1.487-3.44l-3.101.34c-.991.113-2.011-.213-2.931-.822-.906-.467-1.572-1.402-1.968-2.35a5.93 5.93 0 0 1-.34-3.101c.312-1.034.934-1.954 1.727-2.464 5.48-3.299 11.837-5.125 18.251-5.11 2.421.027 4.205 1.967 5.154 4.148a105 105 0 0 1 3.568 9.302c.609 1.642.948 3.455 1.543 5.097 1.076 3.299.326 5.663-2.393 6.81-1.218.567-2.633.708-3.95.283a5.48 5.48 0 0 1-3.115-2.506 54 54 0 0 1-2.379-6.145l.468.383zM77.035 134.17c-1.402.155-2.874-.255-3.95-.991-1.232-.864-1.94-2.068-2.223-3.455-.071-.708-.156-1.402.056-2.138s.425-1.331.793-1.94a3.84 3.84 0 0 1 1.558-1.444c.538-.34 1.217-.566 1.91-.779 1.403-.155 2.875.255 3.951.991 1.09.878 1.94 2.068 2.223 3.469.07.708.156 1.402-.056 2.138-.213.737-.425 1.331-.793 1.94a3.84 3.84 0 0 1-1.558 1.444c-.538.34-1.217.567-1.911.779zM134.972 68.092c.071.708.156 1.402-.057 2.138-.212.736-.424 1.33-.934 1.954a3.85 3.85 0 0 1-1.557 1.444c-.538.34-1.218.566-1.926.637-.708.07-1.26.141-1.996-.07-.595-.227-1.19-.44-1.813-.95a5.1 5.1 0 0 1-1.302-1.571c-.354-.68-.567-1.218-.638-1.926-.155-1.401.27-2.732 1.133-3.964.878-1.09 2.082-1.798 3.483-2.081 1.26-.142 2.591.283 3.526 1.047 1.076.737 1.642 1.954 1.911 3.214l.156.128zM184.626 120.252c.056.566.141 1.26-.085 1.854-.227.595-.439 1.19-.821 1.657a6.3 6.3 0 0 1-1.43 1.288 4.1 4.1 0 0 1-1.784.623c-.567.057-1.261.142-1.855-.084-.581-.085-1.19-.44-1.657-.822a6.3 6.3 0 0 1-1.288-1.43 4.06 4.06 0 0 1-.623-1.784c-.142-1.26 0-2.562.75-3.638.751-1.077 1.798-1.756 3.2-2.053.566-.057 1.26-.142 1.855.084.58.085 1.189.439 1.798.808.467.382.949.892 1.289 1.43s.566 1.217.622 1.784zM127.423 170.728c.114.991-.226 1.869-.708 2.634-.481.764-1.274 1.415-2.081 1.798a4.24 4.24 0 0 1-2.676.283 5 5 0 0 1-2.421-1.303 5.3 5.3 0 0 1-1.402-2.407c-.113-.991-.198-1.826.128-2.718.325-.892.962-1.671 1.614-2.166.793-.51 1.628-.751 2.619-.85 1.288 0 2.464.439 3.285 1.359.948.892 1.359 1.997 1.487 3.257l.155.127z"/></svg>
